src/icons/services/videomarketing.svg

<svg width="52" height="52" viewBox="0 0 52 52" fill="none" xmlns="http://www.w3.org/2000/svg">
<path d="M5.4165 9.75H46.5832C48.4032 9.75 49.8332 11.1583 49.8332 13V37.9167C49.8332 39.7583 48.4032 41.1667 46.5832 41.1667H5.4165C3.57484 41.1667 2.1665 39.7583 2.1665 37.9167V13C2.1665 11.1583 3.57484 9.75 5.4165 9.75ZM21.0382 18.4167V32.5L33.4098 25.35L21.0382 18.4167ZM37.3748 45.5H14.4082C13.7582 45.5 13.3248 45.0667 13.3248 44.4167C13.3248 43.7667 13.7582 43.3333 14.4082 43.3333H37.5915C38.2415 43.3333 38.6748 43.7667 38.6748 44.4167C38.6748 45.0667 38.0248 45.5 37.3748 45.5Z" fill="#9D74D3"/>
</svg>

<svg xmlns="http://www.w3.org/2000/svg" width="52" height="52" fill="none"  ><path d="M5.417 9.75h41.167c1.82 0 3.25 1.408 3.25 3.25v24.917c0 1.842-1.43 3.25-3.25 3.25H5.417a3.19 3.19 0 0 1-3.25-3.25V13a3.19 3.19 0 0 1 3.25-3.25zm15.622 8.667V32.5l12.372-7.15-12.372-6.933zM37.375 45.5H14.408a1.02 1.02 0 0 1-1.083-1.083 1.02 1.02 0 0 1 1.083-1.083h23.183a1.02 1.02 0 0 1 1.083 1.083c0 .65-.65 1.083-1.3 1.083z" fill="#9d74d3"/></svg>
